static/logos/overflow-wordmark-color.svg

<svg width="100" height="18" viewBox="0 0 100 18" fill="none" xmlns="http://www.w3.org/2000/svg">
<path fill-rule="evenodd" clip-rule="evenodd" d="M70.5455 14.6196H72.6284C72.693 14.6196 72.7449 14.5686 72.7449 14.5057V0.139045C72.7449 0.0699189 72.6885 0.0153198 72.6183 0.0153198H70.5556C70.486 0.0153198 70.4297 0.0699189 70.4297 0.139045V14.5057C70.4297 14.5686 70.4816 14.6196 70.5455 14.6196Z" fill="#161637"/>
<path fill-rule="evenodd" clip-rule="evenodd" d="M29.9981 12.6723C28.2236 12.6723 26.7803 11.2284 26.7803 9.45424C26.7803 7.68133 28.2236 6.23684 29.9981 6.23684C31.7718 6.23684 33.2151 7.68133 33.2151 9.45424C33.2151 11.2284 31.7718 12.6723 29.9981 12.6723ZM29.9981 3.93356C26.9538 3.93356 24.4766 6.41013 24.4766 9.45424C24.4766 12.4989 26.9538 14.9759 29.9981 14.9759C33.0421 14.9759 35.5188 12.4989 35.5188 9.45424C35.5188 6.41013 33.0421 3.93356 29.9981 3.93356Z" fill="#161637"/>
<path fill-rule="evenodd" clip-rule="evenodd" d="M79.5131 12.6723C77.7397 12.6723 76.296 11.2284 76.296 9.45424C76.296 7.68133 77.7397 6.23684 79.5131 6.23684C81.2865 6.23684 82.7302 7.68133 82.7302 9.45424C82.7302 11.2284 81.2865 12.6723 79.5131 12.6723ZM79.5131 3.93356C76.4681 3.93356 73.9922 6.41013 73.9922 9.45424C73.9922 12.4989 76.4681 14.9759 79.5131 14.9759C82.558 14.9759 85.0346 12.4989 85.0346 9.45424C85.0346 6.41013 82.558 3.93356 79.5131 3.93356Z" fill="#161637"/>
<path fill-rule="evenodd" clip-rule="evenodd" d="M43.5066 4.18743L40.5925 11.4237L37.6763 4.18743C37.6576 4.14234 37.6129 4.11165 37.5634 4.11165H35.2861C35.1995 4.11165 35.1405 4.20015 35.1732 4.28048L39.4413 14.7227C39.4601 14.7675 39.5049 14.7977 39.5544 14.7977H41.6383C41.6886 14.7977 41.7327 14.7675 41.7512 14.7227L46.019 4.28048C46.052 4.20015 45.9929 4.11165 45.9059 4.11165H43.6197C43.5702 4.11165 43.5252 4.1421 43.5066 4.18743Z" fill="#161637"/>
<path fill-rule="evenodd" clip-rule="evenodd" d="M60.1032 4.71616V4.20828C60.1032 4.14221 60.05 4.0886 59.9845 4.0886H57.8995C57.8337 4.0886 57.7812 4.14221 57.7812 4.20828V14.6696C57.7812 14.741 57.8375 14.7978 57.9078 14.7978H59.9764C60.0465 14.7978 60.1032 14.741 60.1032 14.6696V8.90405C60.1032 7.96234 60.3325 7.28025 60.7859 6.8731C61.2569 6.45127 61.8659 6.23758 62.5947 6.23758H63.0008C63.0688 6.23758 63.1243 6.18184 63.1243 6.11285V4.05879C63.1243 3.98957 63.0688 3.93356 63.0008 3.93356H62.5947C61.5899 3.93356 60.7556 4.19699 60.1032 4.71616Z" fill="#161637"/>
<path fill-rule="evenodd" clip-rule="evenodd" d="M65.4289 0.998111C64.6105 1.7396 64.1953 2.81923 64.1953 4.20834V14.499C64.1953 14.5656 64.251 14.6196 64.3194 14.6196H66.4346C66.5035 14.6196 66.5586 14.5656 66.5586 14.499V6.33184H69.2371C69.3048 6.33184 69.3605 6.27756 69.3605 6.21171V4.18135C69.3605 4.11524 69.3048 4.06119 69.2371 4.06119H66.5618C66.5827 3.39034 66.7516 2.91451 67.0649 2.64672C67.4067 2.35573 67.9953 2.237 68.7763 2.30002L69.227 2.33677C69.2985 2.34317 69.3605 2.28748 69.3605 2.21757V0.178209C69.3605 0.115394 69.3099 0.0625416 69.2459 0.0582762L68.8586 0.0326834C67.4035 -0.0665887 66.244 0.26042 65.4289 0.998111Z" fill="#161637"/>
<path fill-rule="evenodd" clip-rule="evenodd" d="M97.4094 4.19724L95.4575 10.8061L93.3791 4.19438C93.3645 4.14473 93.3183 4.11165 93.267 4.11165H91.3962C91.3449 4.11165 91.2993 4.14473 91.2835 4.19438L89.2056 10.8061L87.2538 4.19724C87.2386 4.14595 87.193 4.11165 87.1405 4.11165H84.9696C84.8898 4.11165 84.8335 4.1879 84.8569 4.2656L88.062 14.7141C88.0778 14.7642 88.1227 14.7977 88.1753 14.7977H90.1613C90.2126 14.7977 90.2582 14.7646 90.2734 14.7152L92.3316 8.26152L94.3892 14.7152C94.4044 14.7646 94.4499 14.7977 94.5012 14.7977H96.4886C96.5398 14.7977 96.586 14.7642 96.6012 14.7141L99.8063 4.2656C99.831 4.1879 99.7727 4.11165 99.6936 4.11165H97.5221C97.4702 4.11165 97.424 4.14595 97.4094 4.19724Z" fill="#161637"/>
<path fill-rule="evenodd" clip-rule="evenodd" d="M48.9643 6.93532C49.5538 6.41696 50.3046 6.15499 51.1974 6.15499C51.9607 6.15499 52.6372 6.40228 53.208 6.88994C53.6382 7.2569 53.9416 7.74886 54.1131 8.35551H48.0373C48.2154 7.79614 48.5256 7.31911 48.9643 6.93532ZM54.1016 11.3551C54.0478 11.323 53.978 11.3356 53.9384 11.3843C53.7726 11.5934 53.3297 12.1226 52.9769 12.3203C52.5285 12.5715 51.979 12.6998 51.3441 12.6998C50.4493 12.6998 49.6925 12.4535 49.0938 11.9703C48.6564 11.6178 48.3485 11.1611 48.175 10.6121H56.3295C56.3957 10.6121 56.4504 10.5632 56.4572 10.4984L56.495 10.1361C56.5222 9.86791 56.5361 9.65127 56.5361 9.49304C56.5361 8.00848 56.0483 6.70253 55.0861 5.61128C54.1059 4.49771 52.8075 3.93356 51.2289 3.93356C49.6119 3.93356 48.2655 4.46825 47.2278 5.52266C46.1955 6.57278 45.6719 7.89589 45.6719 9.45437C45.6719 11.0408 46.2034 12.372 47.2527 13.4109C48.3015 14.4491 49.6726 14.9759 51.3251 14.9759C52.3471 14.9759 53.2749 14.7549 54.0826 14.3208C54.7799 13.9449 55.3585 13.448 55.8066 12.8385C55.8465 12.7832 55.912 12.6858 55.9629 12.6103C56.0015 12.5509 55.9837 12.472 55.9228 12.4364L54.1016 11.3551Z" fill="#161637"/>
<path fill-rule="evenodd" clip-rule="evenodd" d="M19.3126 7.43291C19.3112 7.36854 19.2592 7.31747 19.1946 7.31747H17.0027C17.0027 11.3525 13.7322 14.6224 9.69775 14.6224C5.6616 14.6224 2.39094 11.3525 2.39094 7.31747H0.197359C0.132765 7.31747 0.0807636 7.36854 0.0790934 7.4324L0.078125 7.4362C0.078125 7.43766 0.0790934 7.43861 0.0790934 7.4405C0.145123 12.6874 4.43419 16.9349 9.69775 16.9349C14.9596 16.9349 19.2464 12.6865 19.3126 7.4405C19.3126 7.43861 19.3131 7.43715 19.3131 7.4362C19.3131 7.4362 19.3126 7.4343 19.3126 7.43291Z" fill="#FB5D2E"/>
<path fill-rule="evenodd" clip-rule="evenodd" d="M9.6936 0.0153198C5.65981 0.0153198 2.39062 3.28468 2.39062 7.31747H16.9949C16.9949 3.28468 13.7259 0.0153198 9.6936 0.0153198Z" fill="#16B4F2"/>
<path fill-rule="evenodd" clip-rule="evenodd" d="M16.9949 7.31747C16.9949 11.3512 13.7259 14.6196 9.69354 14.6196C5.65967 14.6196 2.39062 11.3512 2.39062 7.31747H16.9949Z" fill="#2C2C96"/>
</svg>

<svg xmlns="http://www.w3.org/2000/svg" width="355.556" height="64" fill="none" viewBox="0 0 100 18"><path fill="#161637" fill-rule="evenodd" d="M70.546 14.62h2.082a.115.115 0 0 0 .117-.114V.139a.125.125 0 0 0-.127-.124h-2.062a.124.124 0 0 0-.126.124v14.367c0 .063.052.114.115.114ZM29.998 12.672a3.222 3.222 0 0 1-3.218-3.218 3.222 3.222 0 0 1 3.218-3.217 3.222 3.222 0 0 1 3.217 3.217 3.221 3.221 0 0 1-3.217 3.218Zm0-8.738a5.528 5.528 0 0 0-5.521 5.52 5.528 5.528 0 0 0 5.521 5.522 5.528 5.528 0 0 0 5.52-5.522 5.527 5.527 0 0 0-5.52-5.52ZM79.513 12.672a3.222 3.222 0 0 1-3.217-3.218 3.222 3.222 0 0 1 3.217-3.217 3.222 3.222 0 0 1 3.217 3.217 3.222 3.222 0 0 1-3.217 3.218Zm0-8.738a5.527 5.527 0 0 0-5.52 5.52 5.527 5.527 0 0 0 5.52 5.522 5.528 5.528 0 0 0 5.522-5.522 5.527 5.527 0 0 0-5.522-5.52ZM43.507 4.187l-2.914 7.237-2.917-7.237a.123.123 0 0 0-.113-.075h-2.277a.123.123 0 0 0-.113.168l4.268 10.443a.123.123 0 0 0 .113.075h2.084c.05 0 .095-.03.113-.075L46.02 4.28a.122.122 0 0 0-.113-.168H43.62c-.05 0-.095.03-.113.075ZM60.103 4.716v-.508a.12.12 0 0 0-.119-.12H57.9a.119.119 0 0 0-.119.12V14.67c0 .071.056.128.127.128h2.068c.07 0 .127-.057.127-.128V8.904c0-.942.23-1.624.683-2.03.47-.423 1.08-.636 1.809-.636H63a.124.124 0 0 0 .123-.125V4.059a.124.124 0 0 0-.123-.125h-.406c-1.005 0-1.84.263-2.492.782ZM65.429.998c-.819.742-1.234 1.821-1.234 3.21V14.5c0 .067.056.12.124.12h2.116a.122.122 0 0 0 .124-.12V6.332h2.678a.122.122 0 0 0 .124-.12v-2.03a.122.122 0 0 0-.124-.12h-2.675c.02-.672.19-1.147.503-1.415.342-.291.93-.41 1.711-.347l.451.037a.122.122 0 0 0 .133-.12V.179a.122.122 0 0 0-.114-.12l-.387-.025c-1.456-.1-2.615.227-3.43.965ZM97.41 4.197l-1.953 6.61-2.078-6.613a.116.116 0 0 0-.112-.082h-1.87a.118.118 0 0 0-.114.082l-2.077 6.612-1.952-6.609a.118.118 0 0 0-.114-.085h-2.17a.118.118 0 0 0-.113.154l3.205 10.448c.016.05.06.084.113.084h1.986a.117.117 0 0 0 .112-.083l2.059-6.453 2.057 6.453c.015.05.06.083.112.083h1.988a.118.118 0 0 0 .112-.084l3.205-10.448a.118.118 0 0 0-.112-.154h-2.172a.117.117 0 0 0-.113.085ZM48.964 6.935c.59-.518 1.34-.78 2.233-.78.764 0 1.44.247 2.011.735.43.367.734.859.905 1.466h-6.076a3.11 3.11 0 0 1 .927-1.42Zm5.138 4.42a.127.127 0 0 0-.164.03c-.165.208-.608.738-.961.935-.448.252-.998.38-1.633.38-.895 0-1.651-.246-2.25-.73a2.788 2.788 0 0 1-.919-1.358h8.155c.066 0 .12-.049.127-.114l.038-.362c.027-.268.041-.485.041-.643 0-1.485-.488-2.79-1.45-3.882-.98-1.113-2.279-1.677-3.857-1.677-1.617 0-2.963.534-4.001 1.589-1.032 1.05-1.556 2.373-1.556 3.931 0 1.587.531 2.918 1.58 3.957 1.05 1.038 2.42 1.565 4.073 1.565 1.022 0 1.95-.221 2.758-.655a5.137 5.137 0 0 0 1.724-1.482c.04-.056.105-.153.156-.229a.123.123 0 0 0-.04-.174l-1.821-1.08Z" clip-rule="evenodd"/><path fill="#FB5D2E" fill-rule="evenodd" d="M19.313 7.433a.118.118 0 0 0-.118-.116h-2.192a7.305 7.305 0 0 1-7.305 7.305A7.305 7.305 0 0 1 2.39 7.317H.197a.118.118 0 0 0-.118.115V7.441c.066 5.246 4.355 9.494 9.619 9.494 5.262 0 9.548-4.248 9.615-9.494v-.008Z" clip-rule="evenodd"/><path fill="#16B4F2" fill-rule="evenodd" d="M9.694.015A7.302 7.302 0 0 0 2.39 7.317h14.604A7.302 7.302 0 0 0 9.694.015Z" clip-rule="evenodd"/><path fill="#2C2C96" fill-rule="evenodd" d="M16.995 7.317a7.301 7.301 0 0 1-7.301 7.303A7.302 7.302 0 0 1 2.39 7.317h14.604Z" clip-rule="evenodd"/></svg>
